X: 1
T: String Quartet in E\b major opus 9 no 2 mvt 2
C: Franz Joseph Haydn
%%abc-version 2.0
%%abcx-abcm2ps-target-version 5.9.1 (29 Sep 2008)
%%abc-creator hum2abc beta
%%abcx-conversion-date 2021/02/14 14:38:09
%%abc-copyright Copyright (c) 1994, 2000 Center for Computer Assisted Research in the Humanities
%%abc-edited-by Frances Bennion
%%abc-edited-by Frances Bennion
%%abcx-initial-encoding-date 1997/04/15
%%gracespace 0 6 6
%%humdrum-veritas 416908406
%%humdrum-veritas-data 789100767
%%linebreak <none>
%%barnumbers 0
L: 1/4
M: 3/4
N: Derived from op09n2-02.krn
Q: "Menuetto"
%%staves [1 2 3 4]
V: 1
V: 2
V: 3 clef=alto
V: 4 clef=bass
K: Eb
[V:1]B2 c/B/ [I:setbarnb2] |
[V:2]G3 |
[V:3]E E E |
[V:4]E E E |
[V:1]B B B |
[V:2]F3 |
[V:3]D D D |
[V:4]D D D |
[V:1]e e e |
[V:2]G2 =A |
[V:3]C E F |
[V:4]C C C |
[V:1]e2 d |
[V:2]=A2 B |
[V:3]F3 |
[V:4]B,3- |
[V:1]c2 f |
[V:2]G A2 |
[V:3]=E F2 |
[V:4]B, A,2- |
[V:1]B2 e |
[V:2]F G2 |
[V:3]D E2 |
[V:4]A, G,2- |
[V:1]A A A |
[V:2]E D E |
[V:3]C2 _C |
[V:4]G, F, E, |
[V:1]A A,/G,//A,// G,/E/ |
[V:2]F2 E |
[V:3]B,3 |
[V:4]D,2 E, |
[V:1]=B,/C <A F//D// |
[V:2]C2 A, |
[V:3]C2 F, |
[V:4]A,,2 B,, |
[V:1]E z2 |
[V:2]G, z2 |
[V:3]G, z2 |
[V:4]E, B,, E,, |
[V:1]g2 a/g/ |
[V:2]B3 |
[V:3]G3- |
[V:4]E E E |
[V:1]f f f |
[V:2]=B3 |
[V:3]G3 |
[V:4]D D D |
[V:1]e2 f/e/ |
[V:2]c G G |
[V:3]G E E |
[V:4]C C C |
[V:1]_d d d |
[V:2]G3 |
[V:3]E3 |
[V:4]B,3- |
[V:1]c2 f |
[V:2]G A2 |
[V:3]=E F2 |
[V:4]B, A,2- |
[V:1]B2 e |
[V:2]F G2 |
[V:3]D E2 |
[V:4]A, G,2- |
[V:1]A A A |
[V:2]E D E |
[V:3]C2 _C |
[V:4]G, F, E, |
[V:1]A A,/G,//A,// G,/E/ |
[V:2]F2 E |
[V:3]B,3 |
[V:4]D,2 E, |
[V:1]=B,/C <A F//D// |
[V:2]C2 A, |
[V:3]C2 F, |
[V:4]A,,2 B,, |
[V:1]E z2 |
[V:2]G, z2 |
[V:3]G, z2 |
[V:4]E, B,, E,, |
[V:1]B2 (3e/d/c/ |
[V:2]z3 |
[V:3]z3 |
[V:4]z3 |
[V:1](3B/A/G/ (3F/E/D/ (3C/B,/A,/ |
[V:2]z3 |
[V:3]z3 |
[V:4]z3 |
[V:1]G, E =E |
[V:2]z B, B, |
[V:3]z G, G, |
[V:4]z G, G, |
[V:1]F z2 |
[V:2]C z2 |
[V:3]A, z2 |
[V:4]A, z2 |
[V:1]c2 (3a/g/f/ |
[V:2]z3 |
[V:3]z3 |
[V:4]z3 |
[V:1](3c'/b/a/ (3g/f/e/ (3d/e/f/ |
[V:2]z2 B |
[V:3]z2 (3F/E/D/ |
[V:4]z2 A, |
[V:1]e G F |
[V:2]B E D |
[V:3]E B, B, |
[V:4]G, B, B,, |
[V:1]E2 z |
[V:2]E2 z |
[V:3]E B, E, |
[V:4]E, B,, E,, |
[V:1]B2 (3G/A/B/ |
[V:2]z3 |
[V:3]z3 |
[V:4]B,,3- |
[V:1](3A/G/F/ (3E/D/C/ (3B,/C/D/ |
[V:2]z2 (3d/e/f/ |
[V:3]B,2 (3A,/G,/F,/ |
[V:4]B,,3- |
[V:1](3E/F/G/ (3F/G/A/ (3G/A/B/ |
[V:2]e B B |
[V:3](3G,/F,/E,/ (3D,/E,/F,/ (3E,/F,/G,/ |
[V:4]B,,3- |
[V:1](3A/G/F/ (3E/D/C/ (3B,/C/D/ |
[V:2]B2 (3d/e/f/ |
[V:3](3F,/G,/A,/ B, (3A,/G,/F,/ |
[V:4]B,,3- |
[V:1](3E/F/G/ (3F/G/A/ (3G/A/B/ |
[V:2]e B (3B/A/G/ |
[V:3](3G,/F,/E,/ (3D,/E,/F,/ (3E,/F,/G,/ |
[V:4]B,,3 |
[V:1]c z c' |
[V:2]c z2 |
[V:3]A, z2 |
[V:4]A,, z2 |
[V:1]=e f b |
[V:2]B c z |
[V:3]G A z |
[V:4]z3 |
[V:1]d e g |
[V:2]A B z |
[V:3]F G z |
[V:4]z3 |
[V:1]=A B z |
[V:2]E F z |
[V:3]C D z |
[V:4]z3 |
[V:1]A,2 (3C/B,/A,/ |
[V:2]A,2 (3C/B,/A,/ |
[V:3]A,2 (3C/B,/A,/ |
[V:4]A,,2 (3C,/B,,/A,,/ |
[V:1](3G,/A,/B,/ (3C/D/E/ (3F/G/A/ |
[V:2]G, z2 |
[V:3]G, z2 |
[V:4]G,, z2 |
[V:1](3B/c/d/ (3e/f/g/ (3f/e/d/ |
[V:2]z2 B |
[V:3]z2 (3D/E/F/ |
[V:4]z2 A, |
[V:1]e G F |
[V:2]B E D |
[V:3]E B, B, |
[V:4]G, B, B,, |
[V:1]E2 z |]
[V:2]E2 z |]
[V:3]E B, E, |]
[V:4]E, B,, E,, |]

